X: 14265
T: Gabe Arsenault's
R: reel
M: 4/4
K: Dmajor
g|:FDDE FAdf|a^gab afdf|gece Aece|abaf afdA|
dDDE FAdf|a^gab afdf|gece Aecb|acged2d2:|
|:gfga bagf|afdf Adfa|gece Aece|dcdf afdf|
gfga bagf|afdf Adfa|gece Aecb|acged2d2:|

